X: 80
T:..
M:6/8
L:1/8
K:C
GEG | {c}GEG AGE | F2D FDF | {c}FDE FGA | G2E GEG | {c}GEG AGE |F2D FGA
|
BAG FED | C3 :||

